!!!SOCIAL_FUNCTION:	songs received from animals
!!!PDT:	1918

Specific Region: Dakotas, Minnesota, Montana, Nebraska
!!!REG: Dakotas and Montana
!!!LING_GROUP: Siouan
!!!LANG: Tone
!!!OTL@ENG: Song of the Old Wolf
!!!ONM: No. 49
**kern
*Imale
*clefF4
*k[f#c#g#]
*M2/4
*MM72
16c#
=1
8.e
16c#
8.c#
16c#
=2
4c#
8c#
8G#
=3
8.c#
16c#
8.c#
16c#
=4
12c#
12B
12c#
8.A
16B
=5||
*M3/4
12B
12B
12B
4B
12A
12A
12A
=6||
*M2/4
8.B
16A
8.F#
16F#
=7
4F#
4F#
=8
4A
12c#
12c#
12A
=9
12A
[12F#
12F#]
8.F#
16F#
=10||
*M3/4
4F#
12E
12C#
12C#
8.C#
16C#
=11||
*M2/4
8.F#
16E
16E
16C#
16C#
16C#
=12
4C#
4C#
=13
12E
12E
12E
16E
16C#
16C#
16C#
=14
4C#
4C#
==
*-
!!!CNT: Native American -- Sioux
!!!MRD: 1911/07//-1914///
!!!OCL: Frances Densmore
!!!YOR1: Teton Sioux Music, Bulletin 61,
!!!YOR2: Bureau of American Ethnology, Smithsonian Institution
!!!PPR: Government Printing Office
!!!PPP: Washington, D.C.
!!!PDT: 1918///
!!!ENC: Craig Stuart Sapp
!!!END: 2002/03/25/
!!!EEV: 2002/03/31/
!!!AGN: Song of Personal Dreams/Song Received from Animals
!!!MPN@@SIO: Waking'yan-wata'kpe
!!!MPN@ENG: Charging Thunder
!!!TXO: Teton Sioux
!!!MLC: Standing Rock Reservation, South Dakota, United States of America
!!!ARL: 45.9/-100.7#
!!!catalog: Catalogue No. 568
!!!PPG: 183
!!!EFL: 49/245
!!!VTS: 2797462324
